svgs/sharp-light/earth-asia.svg

<svg xmlns="http://www.w3.org/2000/svg" viewBox="0 0 512 512"><!--! Font Awesome Pro 6.6.0 by @fontawesome - https://fontawesome.com License - https://fontawesome.com/license (Commercial License) Copyright 2024 Fonticons, Inc. --><path d="M361.1 453.9l-2.9-5.9L304 448l-16 0 0-16 0-64 0-6.6 4.7-4.7 64-64 4.7-4.7 6.6 0 64 0 16 0 0 16 0 16 22.7 0c6-20.3 9.3-41.8 9.3-64c0-107.2-75.4-196.9-176-218.8L304 96l0 6.6-4.7 4.7L272 134.6l0 73.4 0 16-16 0-32 0 0 80 0 16-16 0-64 0-6.6 0-4.7-4.7L105.4 288l-71.1 0C49.8 396.6 143.2 480 256 480c38 0 73.7-9.4 105.1-26.1zM112 256l6.6 0 4.7 4.7L150.6 288l41.4 0 0-80 0-16 16 0 32 0 0-64 0-6.6 4.7-4.7L272 89.4l0-56.8c-5.3-.4-10.6-.6-16-.6C132.3 32 32 132.3 32 256l80 0zM388.3 436.8c29.9-21.9 54.1-51 70.2-84.8L432 352l-16 0 0-16 0-16-41.4 0L320 374.6l0 41.4 48 0 9.9 0 4.4 8.8 6 11.9zM0 256a256 256 0 1 1 512 0A256 256 0 1 1 0 256zm192 96l0 32-64 0 0-32 64 0zM352 128l0 64-32 0 0-64 32 0zM256 256l32 0 0 64-32 0 0-64z"/></svg>

<svg xmlns="http://www.w3.org/2000/svg" viewBox="0 0 512 512"><!--! Font Awesome Pro 6.5.2 by @fontawesome - https://fontawesome.com License - https://fontawesome.com/license (Commercial License) Copyright 2024 Fonticons, Inc. --><path d="M361.1 453.9l-2.9-5.9H304 288V432 368v-6.6l4.7-4.7 64-64 4.7-4.7H368h64 16v16 16h22.7c6-20.3 9.3-41.8 9.3-64c0-107.2-75.4-196.9-176-218.8V96v6.6l-4.7 4.7L272 134.6V208v16H256 224v80 16H208 144h-6.6l-4.7-4.7L105.4 288H34.3C49.8 396.6 143.2 480 256 480c38 0 73.7-9.4 105.1-26.1zM112 256h6.6l4.7 4.7L150.6 288H192V208 192h16 32V128v-6.6l4.7-4.7L272 89.4V32.6c-5.3-.4-10.6-.6-16-.6C132.3 32 32 132.3 32 256h80zM388.3 436.8c29.9-21.9 54.1-51 70.2-84.8H432 416V336 320H374.6L320 374.6V416h48 9.9l4.4 8.8 6 11.9zM0 256a256 256 0 1 1 512 0A256 256 0 1 1 0 256zm192 96v32H128V352h64zM352 128v64H320V128h32zM256 256h32v64H256V256z"/></svg>
